**kern	**silbe	**kern	**silbe	**harmony	**phrase	**leadinstrument	**timestamp	**harte
*ICvox	*	*ICvox	*	*M4/4	*	*	*	*M4/4
*VRlead	*	*VRharmonize	*	*	*	*	*	*
*Hstimme	*	*Nstimme	*	*	*	*	*	*
*g:	*	*g:	*	*g:	*g:	*g:	*g:	*g:
*M4/4	*	*M4/4	*	*	*	*	*	*
*clefG2	*	*clefG2	*	*	*	*	*	*
r;	.	r;	.	1r;	.	r	0	N.C.
=1	=1	=1	=1	=1	=1	=1	=1	=1
*>Letter>A	*>Letter>A	*>Letter>A	*>Letter>A	*>Letter>A	*>Letter>A	*>Letter>A	*>Letter>A	*>Letter>A
*>Label>Verse	*>Label>Verse	*>Label>Verse	*>Label>Verse	*>Label>Verse	*>Label>Verse	*>Label>Verse	*>Label>Verse	*>Label>Verse
8G	Get	8f	Get	1Gmm	newline	voice	1.842	G:min7
4G	down	4f	down	.	.	.	.	.
8B-	Get	8f	Get	.	.	.	.	.
4A	down	4e	down	.	.	.	.	.
4r	.	4r	.	.	.	.	.	.
=2	=2	=2	=2	=2	=2	=2	=2	=2
8G	Get	8f	Get	1Gmm	.	voice	4.157	G:min7
4G	down	4f	down	.	.	.	.	.
8B-	Get	8f	Get	.	.	.	.	.
4A	down	4e	down	.	.	.	.	.
4r	.	4r	.	.	.	.	.	.
=3	=3	=3	=3	=3	=3	=3	=3	=3
8G	Get	8f	Get	1Gmm	.	voice	6.472	G:min7
4G	down	4f	down	.	.	.	.	.
8B-	Get	8f	Get	.	.	.	.	.
4A	down	4e	down	.	.	.	.	.
4r	.	4r	.	.	.	.	.	.
=4	=4	=4	=4	=4	=4	=4	=4	=4
8G	Get	8f	Get	1Gmm	.	voice	8.787	G:min7
4G	down	4f	down	.	.	.	.	.
8B-	Get	8f	Get	.	.	.	.	.
4A	down	4e	down	.	.	.	.	.
4r	.	4r	.	.	.	.	.	.
=5	=5	=5	=5	=5	=5	=5	=5	=5
8G	Get	8f	Get	1Gmm	newline	voice	11.102	G:min7
4G	down	4f	down	.	.	.	.	.
8B-	Get	8f	Get	.	.	.	.	.
4A	down	4e	down	.	.	.	.	.
4r	.	4r	.	.	.	.	.	.
=6	=6	=6	=6	=6	=6	=6	=6	=6
8G	Get	8f	Get	1Gmm	.	voice	13.389	G:min7
4G	down	4f	down	.	.	.	.	.
8B-	Get	8f	Get	.	.	.	.	.
4A	down	4e	down	.	.	.	.	.
4r	.	4r	.	.	.	.	.	.
=7	=7	=7	=7	=7	=7	=7	=7	=7
8G	Get	8f	Get	1Gmm	.	voice	15.676	G:min7
4G	down	4f	down	.	.	.	.	.
8B-	Get	8f	Get	.	.	.	.	.
4A	down	4e	down	.	.	.	.	.
4r	.	4r	.	.	.	.	.	.
=8	=8	=8	=8	=8	=8	=8	=8	=8
8G	Get	8f	Get	1Gmm	.	voice	17.963	G:min7
4G	down	4f	down	.	.	.	.	.
8B-	Get	8f	Get	.	.	.	.	.
4A	down	4e	down	.	.	.	.	.
4r	.	4r	.	.	.	.	.	.
=9	=9	=9	=9	=9	=9	=9	=9	=9
*>Letter>B	*>Letter>B	*>Letter>B	*>Letter>B	*>Letter>B	*>Letter>B	*>Letter>B	*>Letter>B	*>Letter>B
*>Label>Instrumental	*>Label>Instrumental	*>Label>Instrumental	*>Label>Instrumental	*>Label>Instrumental	*>Label>Instrumental	*>Label>Instrumental	*>Label>Instrumental	*>Label>Instrumental
1r	.	1r	.	1Gmm	newline	bass	20.25	G:min7
=10	=10	=10	=10	=10	=10	=10	=10	=10
1r	.	1r	.	1Gmm	.	bass	22.529	G:min7
=11	=11	=11	=11	=11	=11	=11	=11	=11
1r	.	1r	.	1Gmm	.	bass	24.807	G:min7
=12	=12	=12	=12	=12	=12	=12	=12	=12
1r	.	1r	.	1Gmm	.	bass	27.085	G:min7
=13	=13	=13	=13	=13	=13	=13	=13	=13
1r	.	1r	.	1Gmm	newline	trumpet	29.363	G:min7
=14	=14	=14	=14	=14	=14	=14	=14	=14
1r	.	1r	.	1Gmm	.	trumpet	31.639	G:min7
=15	=15	=15	=15	=15	=15	=15	=15	=15
1r	.	1r	.	1Gmm	.	trumpet	33.915	G:min7
=16	=16	=16	=16	=16	=16	=16	=16	=16
1r	.	1r	.	1Gmm	.	trumpet	36.191	G:min7
=17	=17	=17	=17	=17	=17	=17	=17	=17
*>Letter>C	*>Letter>C	*>Letter>C	*>Letter>C	*>Letter>C	*>Letter>C	*>Letter>C	*>Letter>C	*>Letter>C
*>Label>Chorus	*>Label>Chorus	*>Label>Chorus	*>Label>Chorus	*>Label>Chorus	*>Label>Chorus	*>Label>Chorus	*>Label>Chorus	*>Label>Chorus
8B-	Jun-	8f	Jun-	1Gmm	newline	voice	38.466	G:min7
8A	-gle	8e	-gle	.	.	.	.	.
8G	boo-	8d	boo-	.	.	.	.	.
8A	-gie	8e	-gie	.	.	.	.	.
2r	.	2r	.	.	.	.	.	.
=18	=18	=18	=18	=18	=18	=18	=18	=18
8B-	Jun-	8f	Jun-	1Gmm	.	voice	40.734	G:min7
8A	-gle	8e	-gle	.	.	.	.	.
8G	boo-	8d	boo-	.	.	.	.	.
8A	-gie	8e	-gie	.	.	.	.	.
2r	.	2r	.	.	.	.	.	.
=19	=19	=19	=19	=19	=19	=19	=19	=19
8B-	Jun-	8f	Jun-	1Gmm	.	voice	43.002	G:min7
8A	-gle	8e	-gle	.	.	.	.	.
8G	boo-	8d	boo-	.	.	.	.	.
8A	-gie	8e	-gie	.	.	.	.	.
2r	.	2r	.	.	.	.	.	.
=20	=20	=20	=20	=20	=20	=20	=20	=20
8B-	Jun-	8f	Jun-	1Gmm	.	voice	45.27	G:min7
8A	-gle	8e	-gle	.	.	.	.	.
8G	boo-	8d	boo-	.	.	.	.	.
8A	-gie	8e	-gie	.	.	.	.	.
2r	.	2r	.	.	.	.	.	.
=21	=21	=21	=21	=21	=21	=21	=21	=21
8B-	Jun-	8f	Jun-	1Gmm	newline	voice	47.538	G:min7
8A	-gle	8e	-gle	.	.	.	.	.
8G	boo-	8d	boo-	.	.	.	.	.
8A	-gie	8e	-gie	.	.	.	.	.
2r	.	2r	.	.	.	.	.	.
=22	=22	=22	=22	=22	=22	=22	=22	=22
8B-	Jun-	8f	Jun-	1Gmm	.	voice	49.813	G:min7
8A	-gle	8e	-gle	.	.	.	.	.
8G	boo-	8d	boo-	.	.	.	.	.
8A	-gie	8e	-gie	.	.	.	.	.
2r	.	2r	.	.	.	.	.	.
=23	=23	=23	=23	=23	=23	=23	=23	=23
8B-	Jun-	8f	Jun-	1Gmm	.	voice	52.089	G:min7
8A	-gle	8e	-gle	.	.	.	.	.
8G	boo-	8d	boo-	.	.	.	.	.
8A	-gie	8e	-gie	.	.	.	.	.
2r	.	2r	.	.	.	.	.	.
=24	=24	=24	=24	=24	=24	=24	=24	=24
8B-	Jun-	8f	Jun-	1Gmm	.	voice	54.364	G:min7
8A	-gle	8e	-gle	.	.	.	.	.
8G	boo-	8d	boo-	.	.	.	.	.
8A	-gie	8e	-gie	.	.	.	.	.
2r	.	2r	.	.	.	.	.	.
=25	=25	=25	=25	=25	=25	=25	=25	=25
*>Letter>B	*>Letter>B	*>Letter>B	*>Letter>B	*>Letter>B	*>Letter>B	*>Letter>B	*>Letter>B	*>Letter>B
*>Label>Instrumental	*>Label>Instrumental	*>Label>Instrumental	*>Label>Instrumental	*>Label>Instrumental	*>Label>Instrumental	*>Label>Instrumental	*>Label>Instrumental	*>Label>Instrumental
1r	.	1r	.	1Gmm	newline	bass	56.639	G:min7
=26	=26	=26	=26	=26	=26	=26	=26	=26
1r	.	1r	.	1Gmm	.	bass	58.9	G:min7
=27	=27	=27	=27	=27	=27	=27	=27	=27
1r	.	1r	.	1Gmm	.	bass	61.161	G:min7
=28	=28	=28	=28	=28	=28	=28	=28	=28
1r	.	1r	.	1Gmm	.	bass	63.422	G:min7
=29	=29	=29	=29	=29	=29	=29	=29	=29
1r	.	1r	.	1Gmm	newline	trumpet	65.683	G:min7
=30	=30	=30	=30	=30	=30	=30	=30	=30
1r	.	1r	.	1Gmm	.	trumpet	67.945	G:min7
=31	=31	=31	=31	=31	=31	=31	=31	=31
1r	.	1r	.	1Gmm	.	trumpet	70.208	G:min7
=32	=32	=32	=32	=32	=32	=32	=32	=32
1r	.	1r	.	1Gmm	.	trumpet	72.47	G:min7
=33	=33	=33	=33	=33	=33	=33	=33	=33
*>Letter>C	*>Letter>C	*>Letter>C	*>Letter>C	*>Letter>C	*>Letter>C	*>Letter>C	*>Letter>C	*>Letter>C
*>Label>Chorus	*>Label>Chorus	*>Label>Chorus	*>Label>Chorus	*>Label>Chorus	*>Label>Chorus	*>Label>Chorus	*>Label>Chorus	*>Label>Chorus
8B-	Jun-	8f	Jun-	1Gmm	newline	voice	74.733	G:min7
8A	-gle	8e	-gle	.	.	.	.	.
8G	boo-	8d	boo-	.	.	.	.	.
8A	-gie	8e	-gie	.	.	.	.	.
2r	.	2r	.	.	.	.	.	.
=34	=34	=34	=34	=34	=34	=34	=34	=34
8B-	Jun-	8f	Jun-	1Gmm	.	voice	77.011	G:min7
8A	-gle	8e	-gle	.	.	.	.	.
8G	boo-	8d	boo-	.	.	.	.	.
8A	-gie	8e	-gie	.	.	.	.	.
2r	.	2r	.	.	.	.	.	.
=35	=35	=35	=35	=35	=35	=35	=35	=35
8B-	Jun-	8f	Jun-	1Gmm	.	voice	79.29	G:min7
8A	-gle	8e	-gle	.	.	.	.	.
8G	boo-	8d	boo-	.	.	.	.	.
8A	-gie	8e	-gie	.	.	.	.	.
2r	.	2r	.	.	.	.	.	.
=36	=36	=36	=36	=36	=36	=36	=36	=36
8B-	Jun-	8f	Jun-	1Gmm	.	voice	81.568	G:min7
8A	-gle	8e	-gle	.	.	.	.	.
8G	boo-	8d	boo-	.	.	.	.	.
8A	-gie	8e	-gie	.	.	.	.	.
2r	.	2r	.	.	.	.	.	.
=37	=37	=37	=37	=37	=37	=37	=37	=37
8B-	Jun-	8f	Jun-	1Gmm	newline	voice	83.847	G:min7
8A	-gle	8e	-gle	.	.	.	.	.
8G	boo-	8d	boo-	.	.	.	.	.
8A	-gie	8e	-gie	.	.	.	.	.
2r	.	2r	.	.	.	.	.	.
=38	=38	=38	=38	=38	=38	=38	=38	=38
8B-	Jun-	8f	Jun-	1Gmm	.	voice	86.107	G:min7
8A	-gle	8e	-gle	.	.	.	.	.
8G	boo-	8d	boo-	.	.	.	.	.
8A	-gie	8e	-gie	.	.	.	.	.
2r	.	2r	.	.	.	.	.	.
=39	=39	=39	=39	=39	=39	=39	=39	=39
8B-	Jun-	8f	Jun-	1Gmm	.	voice	88.366	G:min7
8A	-gle	8e	-gle	.	.	.	.	.
8G	boo-	8d	boo-	.	.	.	.	.
8A	-gie	8e	-gie	.	.	.	.	.
2r	.	2r	.	.	.	.	.	.
=40	=40	=40	=40	=40	=40	=40	=40	=40
8B-	Jun-	8f	Jun-	1Gmm	.	voice	90.626	G:min7
8A	-gle	8e	-gle	.	.	.	.	.
8G	boo-	8d	boo-	.	.	.	.	.
8A	-gie	8e	-gie	.	.	.	.	.
2r	.	2r	.	.	.	.	.	.
=41	=41	=41	=41	=41	=41	=41	=41	=41
*>Letter>A2	*>Letter>A2	*>Letter>A2	*>Letter>A2	*>Letter>A2	*>Letter>A2	*>Letter>A2	*>Letter>A2	*>Letter>A2
*>Label>Verse	*>Label>Verse	*>Label>Verse	*>Label>Verse	*>Label>Verse	*>Label>Verse	*>Label>Verse	*>Label>Verse	*>Label>Verse
8G	Get	8d	Get	1Gmm	newline	voice	92.886	G:min7
4G	down	4d	down	.	.	.	.	.
8B-	Get	8f	Get	.	.	.	.	.
4A	down	4e	down	.	.	.	.	.
4r	.	4r	.	.	.	.	.	.
=42	=42	=42	=42	=42	=42	=42	=42	=42
8G	Get	8f	Get	1Gmm	.	voice	95.164	G:min7
4G	down	4f	down	.	.	.	.	.
8B-	Get	8f	Get	.	.	.	.	.
4A	down	4g	down	.	.	.	.	.
4r	.	4r	.	.	.	.	.	.
=43	=43	=43	=43	=43	=43	=43	=43	=43
8G	Get	8f	Get	1Gmm	.	voice	97.443	G:min7
4G	down	4f	down	.	.	.	.	.
8B-	Get	8f	Get	.	.	.	.	.
4A	down	4g	down	.	.	.	.	.
4r	.	4r	.	.	.	.	.	.
=44	=44	=44	=44	=44	=44	=44	=44	=44
8G	Get	8f	Get	1Gmm	.	voice	99.721	G:min7
4G	down	4f	down	.	.	.	.	.
8B-	Get	8f	Get	.	.	.	.	.
4A	down	4g	down	.	.	.	.	.
4r	.	4r	.	.	.	.	.	.
=45	=45	=45	=45	=45	=45	=45	=45	=45
8G	Get	8f	Get	1Gmm	newline	voice	102	G:min7
=46	=46	=46	=46	=46	=46	=46	=46	=46
.	.	.	.	1Gmm	.	voice	104.258	G:min7
4G	down	4f	down	.	.	.	.	.
8B-	Get	8f	Get	.	.	.	.	.
4A	down	4g	down	.	.	.	.	.
4r	.	4r	.	.	.	.	.	.
=46	=46	=46	=46	=46	=46	=46	=46	=46
8G	Get	8f	Get	.	.	.	.	.
4G	down	4f	down	.	.	.	.	.
8B-	Get	8f	Get	.	.	.	.	.
4A	down	4g	down	.	.	.	.	.
4r	.	4r	.	.	.	.	.	.
=47	=47	=47	=47	=47	=47	=47	=47	=47
8G	Get	8f	Get	1Gmm	.	voice	106.517	G:min7
4G	down	4f	down	.	.	.	.	.
8B-	Get	8f	Get	.	.	.	.	.
4A	down	4g	down	.	.	.	.	.
4r	.	4r	.	.	.	.	.	.
=48	=48	=48	=48	=48	=48	=48	=48	=48
8G	Get	8f	Get	1Gmm	.	voice	108.776	G:min7
4G	down	4f	down	.	.	.	.	.
8B-	Get	8f	Get	.	.	.	.	.
4A	down	4g	down	.	.	.	.	.
4r	.	4r	.	.	.	.	.	.
=49	=49	=49	=49	=49	=49	=49	=49	=49
8G	Get	8f	Get	1Gmm	newline	voice	111.035	G:min7
4G	down	4f	down	.	.	.	.	.
8B-	Get	8f	Get	.	.	.	.	.
4A	down	4g	down	.	.	.	.	.
4r	.	4r	.	.	.	.	.	.
=50	=50	=50	=50	=50	=50	=50	=50	=50
8G	Get	8f	Get	1Gmm	.	voice	113.301	G:min7
4G	down	4f	down	.	.	.	.	.
8B-	Get	8f	Get	.	.	.	.	.
4A	down	4g	down	.	.	.	.	.
4r	.	4r	.	.	.	.	.	.
=51	=51	=51	=51	=51	=51	=51	=51	=51
8G	Get	8f	Get	1Gmm	.	voice	115.568	G:min7
4G	down	4f	down	.	.	.	.	.
8B-	Get	8f	Get	.	.	.	.	.
4A	down	4g	down	.	.	.	.	.
4r	.	4r	.	.	.	.	.	.
=52	=52	=52	=52	=52	=52	=52	=52	=52
8G	Get	8f	Get	1Gmm	.	voice	117.834	G:min7
4G	down	4f	down	.	.	.	.	.
8B-	Get	8f	Get	.	.	.	.	.
4A	down	4g	down	.	.	.	.	.
4r	.	4r	.	.	.	.	.	.
=53	=53	=53	=53	=53	=53	=53	=53	=53
*>Letter>B2	*>Letter>B2	*>Letter>B2	*>Letter>B2	*>Letter>B2	*>Letter>B2	*>Letter>B2	*>Letter>B2	*>Letter>B2
*>Label>Instrumental	*>Label>Instrumental	*>Label>Instrumental	*>Label>Instrumental	*>Label>Instrumental	*>Label>Instrumental	*>Label>Instrumental	*>Label>Instrumental	*>Label>Instrumental
1r	.	1r	.	1Gmm	newline	trumpet	120.101	G:min7
=54	=54	=54	=54	=54	=54	=54	=54	=54
1r	.	1r	.	1Gmm	.	trumpet	122.37	G:min7
=55	=55	=55	=55	=55	=55	=55	=55	=55
1r	.	1r	.	1Gmm	.	trumpet	124.639	G:min7
=56	=56	=56	=56	=56	=56	=56	=56	=56
1r	.	1r	.	1Gmm	.	trumpet	126.908	G:min7
=57	=57	=57	=57	=57	=57	=57	=57	=57
*>Letter>D	*>Letter>D	*>Letter>D	*>Letter>D	*>Letter>D	*>Letter>D	*>Letter>D	*>Letter>D	*>Letter>D
*>Label>Outro	*>Label>Outro	*>Label>Outro	*>Label>Outro	*>Label>Outro	*>Label>Outro	*>Label>Outro	*>Label>Outro	*>Label>Outro
1r	.	1r	.	1Gmm	newline	bass	129.178	G:min7
=58	=58	=58	=58	=58	=58	=58	=58	=58
1r	.	1r	.	1Gmm	.	bass	131.429	G:min7
=59	=59	=59	=59	=59	=59	=59	=59	=59
1r	.	1r	.	1Gmm	.	bass	133.68	G:min7
=60	=60	=60	=60	=60	=60	=60	=60	=60
1r	.	1r	.	1Gmm	.	bass	135.93	G:min7
=61	=61	=61	=61	=61	=61	=61	=61	=61
1r	.	1r	.	1Gmm	newline	bass	138.181	G:min7
=62	=62	=62	=62	=62	=62	=62	=62	=62
1r	.	1r	.	1Gmm	.	bass	140.425	G:min7
=63	=63	=63	=63	=63	=63	=63	=63	=63
1r	.	1r	.	1Gmm	.	bass	142.668	G:min7
=64	=64	=64	=64	=64	=64	=64	=64	=64
1r	.	1r	.	1Gmm	.	bass	144.911	G:min7
=65	=65	=65	=65	=65	=65	=65	=65	=65
1r	.	1r	.	1Gmm	newline	bass	147.155	G:min7
=66	=66	=66	=66	=66	=66	=66	=66	=66
1r	.	1r	.	1Gmm	.	bass	149.4	G:min7
=67	=67	=67	=67	=67	=67	=67	=67	=67
1r	.	1r	.	1Gmm	.	bass	151.646	G:min7
=68	=68	=68	=68	=68	=68	=68	=68	=68
1r	.	1r	.	1Gmm	.	bass	153.892	G:min7
=69	=69	=69	=69	=69	=69	=69	=69	=69
1r	.	1r	.	1Gmm	newline	bass	156.138	G:min7
=70	=70	=70	=70	=70	=70	=70	=70	=70
1r	.	1r	.	1Gmm	.	bass	158.346	G:min7
=71	=71	=71	=71	=71	=71	=71	=71	=71
1r	.	1r	.	1Gmm	.	bass	160.555	G:min7
=72	=72	=72	=72	=72	=72	=72	=72	=72
1r	.	1r	.	1Gmm	.	bass	162.763	G:min7
=73	=73	=73	=73	=73	=73	=73	=73	=73
1r	.	1r	.	1Gmm	newline	bass	164.972	G:min7
=74	=74	=74	=74	=74	=74	=74	=74	=74
1r	.	1r	.	1Gmm	.	bass	167.195	G:min7
=75	=75	=75	=75	=75	=75	=75	=75	=75
1r	.	1r	.	1Gmm	.	bass	169.417	G:min7
=76	=76	=76	=76	=76	=76	=76	=76	=76
1r	.	1r	.	1Gmm	.	bass	171.64	G:min7
=77	=77	=77	=77	=77	=77	=77	=77	=77
1r	.	1r	.	1Gmm	newline	bass	173.863	G:min7
=78	=78	=78	=78	=78	=78	=78	=78	=78
1r	.	1r	.	1Gmm	.	bass	175.852	G:min7
=79	=79	=79	=79	=79	=79	=79	=79	=79
1r	.	1r	.	1Gmm	.	bass	177.841	G:min7
=80	=80	=80	=80	=80	=80	=80	=80	=80
1r	.	1r	.	1Gmm	.	bass	179.831	G:min7
=81	=81	=81	=81	=81	=81	=81	=81	=81
1r	.	1r	.	1Gmm	.	bass	181.82	G:min7
r;	.	1r	.	1r;	.	r	183.809	N.C.
r;	.	1r	.	1r;	.	r	186.201	N.C.
*-	*-	*-	*-	*-	*-	*-	*-	*-
!!!BillboardChartDate: 1974/01/19
!!!BillboardPeak: 4
!!!BillboardWeeksOnChart: 22
!!!COC: Kool & The Gang
!!!ENC: Nathaniel Condit-Schultz
!!!EST: Awating manual error checking and editing.
!!!OTL: Jungle Boogie
!!!RDF**chordsym: original McGill chord annotation + (implied pitch class set, with bass pitch in first position)
!!!RDF**harmony: **recip + pitch class of root + harmonic quality
!!!RDF**leadinstrument: original McGill primary instrumentation annotation
!!!RDF**phrase: newline = linebreak in original McGill transcription
!!!RDF**timestamp: McGill audio timestamp in seconds
!!!RDT: 2017/01/12/
!!!SampleActualRank: 22
!!!SampleID#: 0331
!!!SampleTargetRank: 22
